Newaita-dark/apps/64/internet-chat.svg

<svg height="64pt" viewBox="0 0 64 64" width="64pt" xmlns="http://www.w3.org/2000/svg" xmlns:xlink="http://www.w3.org/1999/xlink"><linearGradient id="a"><stop offset="0" stop-opacity=".313726"/><stop offset=".222222" stop-opacity=".27451"/><stop offset="1" stop-opacity="0"/></linearGradient><radialGradient id="b" cx="450.908936" cy="189.579361" gradientTransform="matrix(.00000021 -.156265 -.168766 -.0000002 83.857771 129.836747)" gradientUnits="userSpaceOnUse" r="21.166656" xlink:href="#a"/><radialGradient id="c" cx="450.908936" cy="189.579361" gradientTransform="matrix(-.00000021 .156265 .168766 .0000002 19.074987 -12.408875)" gradientUnits="userSpaceOnUse" r="21.166656" xlink:href="#a"/><radialGradient id="d" cx="450.908936" cy="189.579361" gradientTransform="matrix(-.00000021 -.156265 .168766 -.0000002 19.074987 129.836747)" gradientUnits="userSpaceOnUse" r="21.166656" xlink:href="#a"/><radialGradient id="e" cx="450.908936" cy="189.579361" gradientTransform="matrix(.00000021 .156265 -.168766 .0000002 83.857768 -12.408876)" gradientUnits="userSpaceOnUse" r="21.166656" xlink:href="#a"/><linearGradient id="f" gradientTransform="matrix(.00442264 0 0 .125012 49.561595 29.523656)" gradientUnits="userSpaceOnUse" x1="255.323059" x2="255.323044" y1="233.5" y2="254.666656"><stop offset="0" stop-opacity=".27451"/><stop offset="1" stop-opacity="0"/></linearGradient><linearGradient id="g"><stop offset="0" stop-color="#26a69a"/><stop offset="1" stop-color="#4db6ac"/></linearGradient><linearGradient id="h" gradientUnits="userSpaceOnUse" x1="370.416656" x2="370.416656" xlink:href="#g" y1="254.666672" y2="-168.666656"/><linearGradient id="i" gradientUnits="userSpaceOnUse" x1="31.753048" x2="31.753048" xlink:href="#g" y1="58.71395600006" y2="5.79220799994"/><linearGradient id="j"><stop offset="0" stop-color="#bdbdbd"/><stop offset="1" stop-color="#e0e0e0"/></linearGradient><linearGradient id="k" gradientUnits="userSpaceOnUse" x1="14.53979" x2="14.53979" xlink:href="#j" y1="40.68747862474" y2="32.74922000006"/><linearGradient id="l" gradientUnits="userSpaceOnUse" x1="25.137829" x2="25.137829" xlink:href="#j" y1="40.68747862474" y2="32.74922000006"/><linearGradient id="m" gradientUnits="userSpaceOnUse" x1="35.722173" x2="35.722173" xlink:href="#j" y1="40.68747862474" y2="32.74922000006"/><path d="m52.261719 58.714844h3.171875v-2.648438h-3.171875zm0 0" fill="url(#b)"/><path d="m50.671875 58.714844h-3.175781v2.644531h3.175781zm0 0" fill="url(#c)"/><path d="m50.671875 58.714844h-3.175781v-2.648438h3.175781zm0 0" fill="url(#d)"/><path d="m52.261719 58.714844h3.171875v2.644531h-3.171875zm0 0" fill="url(#e)"/><path d="m50.671875 58.714844h1.589844v2.644531h-1.589844zm0 0" fill="url(#f)"/><path d="m306.908192 138.341258c-9.624081 0-14.154899 11.873866-7.030579 18.310751l105.833644 95.240905c6.780602 6.061921 17.529576 1.281128 17.529576-7.811754v-95.240905c0-5.811945-4.687053-10.498997-10.498998-10.498997zm0 0" fill="url(#h)" stroke="#212121" stroke-linecap="round" stroke-linejoin="round" stroke-width="3" transform="matrix(.125012 0 0 .125012 0 26.877566)"/><path d="m37.167969 44.957031c-.210938.480469-.144531 1.082031.320312 1.503907l13.230469 11.90625c.847656.757812 2.191406.160156 2.191406-.976563v-1.070313c0 1.136719-1.34375 1.738282-2.191406.976563l-13.230469-11.90625c-.144531-.128906-.25-.277344-.320312-.433594zm0 0" fill-opacity=".235294"/><path d="m9.261719 5.792969h44.984375c2.191406 0 3.96875 1.777343 3.96875 3.96875v34.398437c0 2.191406-1.777344 3.96875-3.96875 3.96875h-44.984375c-2.191407 0-3.96875-1.777344-3.96875-3.96875v-34.398437c0-2.191407 1.777343-3.96875 3.96875-3.96875zm0 0" fill="url(#i)"/><path d="m14.539062 32.75c2.191407 0 3.96875 1.777344 3.96875 3.96875s-1.777343 3.96875-3.96875 3.96875c-2.191406 0-3.96875-1.777344-3.96875-3.96875s1.777344-3.96875 3.96875-3.96875zm0 0" fill="url(#k)"/><path d="m14.539062 32.75c-2.199218 0-3.96875 1.769531-3.96875 3.96875 0 .109375.003907.222656.015626.332031.164062-2.042969 1.867187-3.640625 3.953124-3.640625 2.089844 0 3.789063 1.597656 3.957032 3.640625.007812-.109375.011718-.222656.011718-.332031 0-2.199219-1.769531-3.96875-3.96875-3.96875zm0 0" fill="#fff" fill-opacity=".392157"/><path d="m14.539062 41.515625c-2.199218 0-3.96875-1.769531-3.96875-3.96875 0-.113281.003907-.222656.015626-.332031.164062 2.042968 1.867187 3.636718 3.953124 3.636718 2.089844 0 3.789063-1.59375 3.957032-3.636718.007812.109375.011718.21875.011718.332031 0 2.199219-1.769531 3.96875-3.96875 3.96875zm0 0" fill-opacity=".235294"/><path d="m14.539062 32.5625c-2.296874 0-4.15625 1.855469-4.15625 4.15625s1.859376 4.15625 4.15625 4.15625c2.300782 0 4.15625-1.855469 4.15625-4.15625s-1.855468-4.15625-4.15625-4.15625zm0 .375c2.097657 0 3.78125 1.683594 3.78125 3.78125s-1.683593 3.78125-3.78125 3.78125c-2.097656 0-3.78125-1.683594-3.78125-3.78125s1.683594-3.78125 3.78125-3.78125zm0 0" fill="#212121"/><path d="m9.261719 5.792969c-2.199219 0-3.96875 1.769531-3.96875 3.96875v.992187c0-2.199218 1.769531-3.96875 3.96875-3.96875h44.984375c2.199218 0 3.96875 1.769532 3.96875 3.96875v-.992187c0-2.199219-1.769532-3.96875-3.96875-3.96875zm0 0" fill="#fff" fill-opacity=".392157"/><path d="m9.261719 48.128906c-2.199219 0-3.96875-1.769531-3.96875-3.96875v-.992187c0 2.199219 1.769531 3.96875 3.96875 3.96875h44.984375c2.199218 0 3.96875-1.769531 3.96875-3.96875v.992187c0 2.199219-1.769532 3.96875-3.96875 3.96875zm0 0" fill-opacity=".235294"/><path d="m74.086675-168.660675h359.840637c17.529576 0 31.746968 14.217392 31.746968 31.746968v275.161224c0 17.529576-14.217392 31.746968-31.746968 31.746968h-359.840637c-17.529576 0-31.746968-14.217392-31.746968-31.746968v-275.161224c0-17.529576 14.217392-31.746968 31.746968-31.746968zm0 0" fill="none" stroke="#212121" stroke-linecap="round" stroke-linejoin="round" stroke-width="3" transform="matrix(.125012 0 0 .125012 0 26.877566)"/><path d="m39.355469 48.128906 1.101562.992188h12.464844v-.992188zm0 0" fill-opacity=".235294"/><path d="m25.136719 32.75c2.191406 0 3.96875 1.777344 3.96875 3.96875s-1.777344 3.96875-3.96875 3.96875c-2.191407 0-3.96875-1.777344-3.96875-3.96875s1.777343-3.96875 3.96875-3.96875zm0 0" fill="url(#l)"/><path d="m25.136719 32.75c-2.199219 0-3.96875 1.769531-3.96875 3.96875 0 .109375.003906.222656.015625.332031.164062-2.042969 1.867187-3.640625 3.953125-3.640625 2.089843 0 3.789062 1.597656 3.957031 3.640625.007812-.109375.011719-.222656.011719-.332031 0-2.199219-1.769531-3.96875-3.96875-3.96875zm0 0" fill="#fff" fill-opacity=".392157"/><path d="m25.136719 41.515625c-2.199219 0-3.96875-1.769531-3.96875-3.96875 0-.113281.003906-.222656.015625-.332031.164062 2.042968 1.867187 3.636718 3.953125 3.636718 2.089843 0 3.789062-1.59375 3.957031-3.636718.007812.109375.011719.21875.011719.332031 0 2.199219-1.769531 3.96875-3.96875 3.96875zm0 0" fill-opacity=".235294"/><path d="m25.136719 32.5625c-2.296875 0-4.15625 1.855469-4.15625 4.15625s1.859375 4.15625 4.15625 4.15625c2.300781 0 4.15625-1.855469 4.15625-4.15625s-1.855469-4.15625-4.15625-4.15625zm0 .375c2.097656 0 3.78125 1.683594 3.78125 3.78125s-1.683594 3.78125-3.78125 3.78125c-2.097657 0-3.78125-1.683594-3.78125-3.78125s1.683593-3.78125 3.78125-3.78125zm0 0" fill="#212121"/><path d="m35.722656 32.75c2.191406 0 3.96875 1.777344 3.96875 3.96875s-1.777344 3.96875-3.96875 3.96875-3.96875-1.777344-3.96875-3.96875 1.777344-3.96875 3.96875-3.96875zm0 0" fill="url(#m)"/><path d="m35.722656 32.75c-2.199218 0-3.96875 1.769531-3.96875 3.96875 0 .109375.003906.222656.011719.332031.167969-2.042969 1.867187-3.640625 3.957031-3.640625 2.085938 0 3.789063 1.597656 3.953125 3.640625.011719-.109375.015625-.222656.015625-.332031 0-2.199219-1.769531-3.96875-3.96875-3.96875zm0 0" fill="#fff" fill-opacity=".392157"/><path d="m35.722656 41.515625c-2.199218 0-3.96875-1.769531-3.96875-3.96875 0-.113281.003906-.222656.011719-.332031.167969 2.042968 1.867187 3.636718 3.957031 3.636718 2.085938 0 3.789063-1.59375 3.953125-3.636718.011719.109375.015625.21875.015625.332031 0 2.199219-1.769531 3.96875-3.96875 3.96875zm0 0" fill-opacity=".235294"/><path d="m35.722656 32.5625c-2.300781 0-4.15625 1.855469-4.15625 4.15625s1.855469 4.15625 4.15625 4.15625c2.300782 0 4.15625-1.855469 4.15625-4.15625s-1.855468-4.15625-4.15625-4.15625zm0 .375c2.097656 0 3.78125 1.683594 3.78125 3.78125s-1.683594 3.78125-3.78125 3.78125-3.78125-1.683594-3.78125-3.78125 1.683594-3.78125 3.78125-3.78125zm0 0" fill="#212121"/></svg>

<?xml version="1.0" encoding="UTF-8"?>
<svg xmlns="http://www.w3.org/2000/svg" xmlns:xlink="http://www.w3.org/1999/xlink" width="64pt" height="64pt" viewBox="0 0 64 64" version="1.1">
<defs>
<radialGradient id="radial0" gradientUnits="userSpaceOnUse" cx="450.908936" cy="189.579361" fx="450.908936" fy="189.579361" r="21.166656" gradientTransform="matrix(0.000000209004,-0.156265,-0.168766,-0.000000203077,83.857771,129.836747)">
<stop offset="0" style="stop-color:rgb(0%,0%,0%);stop-opacity:0.313726;"/>
<stop offset="0.222222" style="stop-color:rgb(0%,0%,0%);stop-opacity:0.27451;"/>
<stop offset="1" style="stop-color:rgb(0%,0%,0%);stop-opacity:0;"/>
</radialGradient>
<radialGradient id="radial1" gradientUnits="userSpaceOnUse" cx="450.908936" cy="189.579361" fx="450.908936" fy="189.579361" r="21.166656" gradientTransform="matrix(-0.000000209004,0.156265,0.168766,0.000000203077,19.074987,-12.408875)">
<stop offset="0" style="stop-color:rgb(0%,0%,0%);stop-opacity:0.313726;"/>
<stop offset="0.222222" style="stop-color:rgb(0%,0%,0%);stop-opacity:0.27451;"/>
<stop offset="1" style="stop-color:rgb(0%,0%,0%);stop-opacity:0;"/>
</radialGradient>
<radialGradient id="radial2" gradientUnits="userSpaceOnUse" cx="450.908936" cy="189.579361" fx="450.908936" fy="189.579361" r="21.166656" gradientTransform="matrix(-0.000000209004,-0.156265,0.168766,-0.000000203077,19.074987,129.836747)">
<stop offset="0" style="stop-color:rgb(0%,0%,0%);stop-opacity:0.313726;"/>
<stop offset="0.222222" style="stop-color:rgb(0%,0%,0%);stop-opacity:0.27451;"/>
<stop offset="1" style="stop-color:rgb(0%,0%,0%);stop-opacity:0;"/>
</radialGradient>
<radialGradient id="radial3" gradientUnits="userSpaceOnUse" cx="450.908936" cy="189.579361" fx="450.908936" fy="189.579361" r="21.166656" gradientTransform="matrix(0.000000209004,0.156265,-0.168766,0.000000203077,83.857768,-12.408876)">
<stop offset="0" style="stop-color:rgb(0%,0%,0%);stop-opacity:0.313726;"/>
<stop offset="0.222222" style="stop-color:rgb(0%,0%,0%);stop-opacity:0.27451;"/>
<stop offset="1" style="stop-color:rgb(0%,0%,0%);stop-opacity:0;"/>
</radialGradient>
<linearGradient id="linear0" gradientUnits="userSpaceOnUse" x1="255.323059" y1="233.5" x2="255.323044" y2="254.666656" gradientTransform="matrix(0.00442264,0,0,0.125012,49.561595,29.523656)">
<stop offset="0" style="stop-color:rgb(0%,0%,0%);stop-opacity:0.27451;"/>
<stop offset="1" style="stop-color:rgb(0%,0%,0%);stop-opacity:0;"/>
</linearGradient>
<linearGradient id="linear1" gradientUnits="userSpaceOnUse" x1="370.416656" y1="254.666672" x2="370.416656" y2="-168.666656" >
<stop offset="0" style="stop-color:rgb(14.901961%,65.098041%,60.392159%);stop-opacity:1;"/>
<stop offset="1" style="stop-color:rgb(30.19608%,71.372551%,67.450982%);stop-opacity:1;"/>
</linearGradient>
<linearGradient id="linear2" gradientUnits="userSpaceOnUse" x1="254" y1="254.666672" x2="254" y2="-168.666672" gradientTransform="matrix(0.125012,0,0,0.125012,0,26.877566)">
<stop offset="0" style="stop-color:rgb(14.901961%,65.098041%,60.392159%);stop-opacity:1;"/>
<stop offset="1" style="stop-color:rgb(30.19608%,71.372551%,67.450982%);stop-opacity:1;"/>
</linearGradient>
<linearGradient id="linear3" gradientUnits="userSpaceOnUse" x1="190.5" y1="32.416645" x2="190.5" y2="-31.083328" gradientTransform="matrix(0.125012,0,0,0.125012,-9.274996,36.635009)">
<stop offset="0" style="stop-color:rgb(74.117649%,74.117649%,74.117649%);stop-opacity:1;"/>
<stop offset="1" style="stop-color:rgb(87.843138%,87.843138%,87.843138%);stop-opacity:1;"/>
</linearGradient>
<linearGradient id="linear4" gradientUnits="userSpaceOnUse" x1="190.5" y1="32.416645" x2="190.5" y2="-31.083328" gradientTransform="matrix(0.125012,0,0,0.125012,1.323043,36.635009)">
<stop offset="0" style="stop-color:rgb(74.117649%,74.117649%,74.117649%);stop-opacity:1;"/>
<stop offset="1" style="stop-color:rgb(87.843138%,87.843138%,87.843138%);stop-opacity:1;"/>
</linearGradient>
<linearGradient id="linear5" gradientUnits="userSpaceOnUse" x1="190.5" y1="32.416645" x2="190.5" y2="-31.083328" gradientTransform="matrix(0.125012,0,0,0.125012,11.907387,36.635009)">
<stop offset="0" style="stop-color:rgb(74.117649%,74.117649%,74.117649%);stop-opacity:1;"/>
<stop offset="1" style="stop-color:rgb(87.843138%,87.843138%,87.843138%);stop-opacity:1;"/>
</linearGradient>
</defs>
<g id="surface1">
<path style=" stroke:none;fill-rule:nonzero;fill:url(#radial0);" d="M 52.261719 58.714844 L 55.433594 58.714844 L 55.433594 56.066406 L 52.261719 56.066406 Z M 52.261719 58.714844 "/>
<path style=" stroke:none;fill-rule:nonzero;fill:url(#radial1);" d="M 50.671875 58.714844 L 47.496094 58.714844 L 47.496094 61.359375 L 50.671875 61.359375 Z M 50.671875 58.714844 "/>
<path style=" stroke:none;fill-rule:nonzero;fill:url(#radial2);" d="M 50.671875 58.714844 L 47.496094 58.714844 L 47.496094 56.066406 L 50.671875 56.066406 Z M 50.671875 58.714844 "/>
<path style=" stroke:none;fill-rule:nonzero;fill:url(#radial3);" d="M 52.261719 58.714844 L 55.433594 58.714844 L 55.433594 61.359375 L 52.261719 61.359375 Z M 52.261719 58.714844 "/>
<path style=" stroke:none;fill-rule:nonzero;fill:url(#linear0);" d="M 50.671875 58.714844 L 52.261719 58.714844 L 52.261719 61.359375 L 50.671875 61.359375 Z M 50.671875 58.714844 "/>
<path style="fill-rule:nonzero;fill:url(#linear1);stroke-width:3;stroke-linecap:round;stroke-linejoin:round;stroke:rgb(12.941177%,12.941177%,12.941177%);stroke-opacity:1;stroke-miterlimit:4;" d="M 306.908192 138.341258 C 297.284111 138.341258 292.753293 150.215124 299.877613 156.652009 L 405.711257 251.892914 C 412.491859 257.954835 423.240833 253.174042 423.240833 244.08116 L 423.240833 148.840255 C 423.240833 143.02831 418.55378 138.341258 412.741835 138.341258 Z M 306.908192 138.341258 " transform="matrix(0.125012,0,0,0.125012,0,26.877566)"/>
<path style=" stroke:none;fill-rule:nonzero;fill:rgb(0%,0%,0%);fill-opacity:0.235294;" d="M 37.167969 44.957031 C 36.957031 45.4375 37.023438 46.039062 37.488281 46.460938 L 50.71875 58.367188 C 51.566406 59.125 52.910156 58.527344 52.910156 57.390625 L 52.910156 56.320312 C 52.910156 57.457031 51.566406 58.058594 50.71875 57.296875 L 37.488281 45.390625 C 37.34375 45.261719 37.238281 45.113281 37.167969 44.957031 Z M 37.167969 44.957031 "/>
<path style=" stroke:none;fill-rule:nonzero;fill:url(#linear2);" d="M 9.261719 5.792969 L 54.246094 5.792969 C 56.4375 5.792969 58.214844 7.570312 58.214844 9.761719 L 58.214844 44.160156 C 58.214844 46.351562 56.4375 48.128906 54.246094 48.128906 L 9.261719 48.128906 C 7.070312 48.128906 5.292969 46.351562 5.292969 44.160156 L 5.292969 9.761719 C 5.292969 7.570312 7.070312 5.792969 9.261719 5.792969 Z M 9.261719 5.792969 "/>
<path style=" stroke:none;fill-rule:nonzero;fill:url(#linear3);" d="M 14.539062 32.75 C 16.730469 32.75 18.507812 34.527344 18.507812 36.71875 C 18.507812 38.910156 16.730469 40.6875 14.539062 40.6875 C 12.347656 40.6875 10.570312 38.910156 10.570312 36.71875 C 10.570312 34.527344 12.347656 32.75 14.539062 32.75 Z M 14.539062 32.75 "/>
<path style=" stroke:none;fill-rule:nonzero;fill:rgb(100%,100%,100%);fill-opacity:0.392157;" d="M 14.539062 32.75 C 12.339844 32.75 10.570312 34.519531 10.570312 36.71875 C 10.570312 36.828125 10.574219 36.941406 10.585938 37.050781 C 10.75 35.007812 12.453125 33.410156 14.539062 33.410156 C 16.628906 33.410156 18.328125 35.007812 18.496094 37.050781 C 18.503906 36.941406 18.507812 36.828125 18.507812 36.71875 C 18.507812 34.519531 16.738281 32.75 14.539062 32.75 Z M 14.539062 32.75 "/>
<path style=" stroke:none;fill-rule:nonzero;fill:rgb(0%,0%,0%);fill-opacity:0.235294;" d="M 14.539062 41.515625 C 12.339844 41.515625 10.570312 39.746094 10.570312 37.546875 C 10.570312 37.433594 10.574219 37.324219 10.585938 37.214844 C 10.75 39.257812 12.453125 40.851562 14.539062 40.851562 C 16.628906 40.851562 18.328125 39.257812 18.496094 37.214844 C 18.503906 37.324219 18.507812 37.433594 18.507812 37.546875 C 18.507812 39.746094 16.738281 41.515625 14.539062 41.515625 Z M 14.539062 41.515625 "/>
<path style=" stroke:none;fill-rule:nonzero;fill:rgb(12.941177%,12.941177%,12.941177%);fill-opacity:1;" d="M 14.539062 32.5625 C 12.242188 32.5625 10.382812 34.417969 10.382812 36.71875 C 10.382812 39.019531 12.242188 40.875 14.539062 40.875 C 16.839844 40.875 18.695312 39.019531 18.695312 36.71875 C 18.695312 34.417969 16.839844 32.5625 14.539062 32.5625 Z M 14.539062 32.9375 C 16.636719 32.9375 18.320312 34.621094 18.320312 36.71875 C 18.320312 38.816406 16.636719 40.5 14.539062 40.5 C 12.441406 40.5 10.757812 38.816406 10.757812 36.71875 C 10.757812 34.621094 12.441406 32.9375 14.539062 32.9375 Z M 14.539062 32.9375 "/>
<path style=" stroke:none;fill-rule:nonzero;fill:rgb(100%,100%,100%);fill-opacity:0.392157;" d="M 9.261719 5.792969 C 7.0625 5.792969 5.292969 7.5625 5.292969 9.761719 L 5.292969 10.753906 C 5.292969 8.554688 7.0625 6.785156 9.261719 6.785156 L 54.246094 6.785156 C 56.445312 6.785156 58.214844 8.554688 58.214844 10.753906 L 58.214844 9.761719 C 58.214844 7.5625 56.445312 5.792969 54.246094 5.792969 Z M 9.261719 5.792969 "/>
<path style=" stroke:none;fill-rule:nonzero;fill:rgb(0%,0%,0%);fill-opacity:0.235294;" d="M 9.261719 48.128906 C 7.0625 48.128906 5.292969 46.359375 5.292969 44.160156 L 5.292969 43.167969 C 5.292969 45.367188 7.0625 47.136719 9.261719 47.136719 L 54.246094 47.136719 C 56.445312 47.136719 58.214844 45.367188 58.214844 43.167969 L 58.214844 44.160156 C 58.214844 46.359375 56.445312 48.128906 54.246094 48.128906 Z M 9.261719 48.128906 "/>
<path style="fill:none;stroke-width:3;stroke-linecap:round;stroke-linejoin:round;stroke:rgb(12.941177%,12.941177%,12.941177%);stroke-opacity:1;stroke-miterlimit:4;" d="M 74.086675 -168.660675 L 433.927312 -168.660675 C 451.456888 -168.660675 465.67428 -154.443283 465.67428 -136.913707 L 465.67428 138.247517 C 465.67428 155.777093 451.456888 169.994485 433.927312 169.994485 L 74.086675 169.994485 C 56.557099 169.994485 42.339707 155.777093 42.339707 138.247517 L 42.339707 -136.913707 C 42.339707 -154.443283 56.557099 -168.660675 74.086675 -168.660675 Z M 74.086675 -168.660675 " transform="matrix(0.125012,0,0,0.125012,0,26.877566)"/>
<path style=" stroke:none;fill-rule:nonzero;fill:rgb(0%,0%,0%);fill-opacity:0.235294;" d="M 39.355469 48.128906 L 40.457031 49.121094 L 52.921875 49.121094 L 52.921875 48.128906 Z M 39.355469 48.128906 "/>
<path style=" stroke:none;fill-rule:nonzero;fill:url(#linear4);" d="M 25.136719 32.75 C 27.328125 32.75 29.105469 34.527344 29.105469 36.71875 C 29.105469 38.910156 27.328125 40.6875 25.136719 40.6875 C 22.945312 40.6875 21.167969 38.910156 21.167969 36.71875 C 21.167969 34.527344 22.945312 32.75 25.136719 32.75 Z M 25.136719 32.75 "/>
<path style=" stroke:none;fill-rule:nonzero;fill:rgb(100%,100%,100%);fill-opacity:0.392157;" d="M 25.136719 32.75 C 22.9375 32.75 21.167969 34.519531 21.167969 36.71875 C 21.167969 36.828125 21.171875 36.941406 21.183594 37.050781 C 21.347656 35.007812 23.050781 33.410156 25.136719 33.410156 C 27.226562 33.410156 28.925781 35.007812 29.09375 37.050781 C 29.101562 36.941406 29.105469 36.828125 29.105469 36.71875 C 29.105469 34.519531 27.335938 32.75 25.136719 32.75 Z M 25.136719 32.75 "/>
<path style=" stroke:none;fill-rule:nonzero;fill:rgb(0%,0%,0%);fill-opacity:0.235294;" d="M 25.136719 41.515625 C 22.9375 41.515625 21.167969 39.746094 21.167969 37.546875 C 21.167969 37.433594 21.171875 37.324219 21.183594 37.214844 C 21.347656 39.257812 23.050781 40.851562 25.136719 40.851562 C 27.226562 40.851562 28.925781 39.257812 29.09375 37.214844 C 29.101562 37.324219 29.105469 37.433594 29.105469 37.546875 C 29.105469 39.746094 27.335938 41.515625 25.136719 41.515625 Z M 25.136719 41.515625 "/>
<path style=" stroke:none;fill-rule:nonzero;fill:rgb(12.941177%,12.941177%,12.941177%);fill-opacity:1;" d="M 25.136719 32.5625 C 22.839844 32.5625 20.980469 34.417969 20.980469 36.71875 C 20.980469 39.019531 22.839844 40.875 25.136719 40.875 C 27.4375 40.875 29.292969 39.019531 29.292969 36.71875 C 29.292969 34.417969 27.4375 32.5625 25.136719 32.5625 Z M 25.136719 32.9375 C 27.234375 32.9375 28.917969 34.621094 28.917969 36.71875 C 28.917969 38.816406 27.234375 40.5 25.136719 40.5 C 23.039062 40.5 21.355469 38.816406 21.355469 36.71875 C 21.355469 34.621094 23.039062 32.9375 25.136719 32.9375 Z M 25.136719 32.9375 "/>
<path style=" stroke:none;fill-rule:nonzero;fill:url(#linear5);" d="M 35.722656 32.75 C 37.914062 32.75 39.691406 34.527344 39.691406 36.71875 C 39.691406 38.910156 37.914062 40.6875 35.722656 40.6875 C 33.53125 40.6875 31.753906 38.910156 31.753906 36.71875 C 31.753906 34.527344 33.53125 32.75 35.722656 32.75 Z M 35.722656 32.75 "/>
<path style=" stroke:none;fill-rule:nonzero;fill:rgb(100%,100%,100%);fill-opacity:0.392157;" d="M 35.722656 32.75 C 33.523438 32.75 31.753906 34.519531 31.753906 36.71875 C 31.753906 36.828125 31.757812 36.941406 31.765625 37.050781 C 31.933594 35.007812 33.632812 33.410156 35.722656 33.410156 C 37.808594 33.410156 39.511719 35.007812 39.675781 37.050781 C 39.6875 36.941406 39.691406 36.828125 39.691406 36.71875 C 39.691406 34.519531 37.921875 32.75 35.722656 32.75 Z M 35.722656 32.75 "/>
<path style=" stroke:none;fill-rule:nonzero;fill:rgb(0%,0%,0%);fill-opacity:0.235294;" d="M 35.722656 41.515625 C 33.523438 41.515625 31.753906 39.746094 31.753906 37.546875 C 31.753906 37.433594 31.757812 37.324219 31.765625 37.214844 C 31.933594 39.257812 33.632812 40.851562 35.722656 40.851562 C 37.808594 40.851562 39.511719 39.257812 39.675781 37.214844 C 39.6875 37.324219 39.691406 37.433594 39.691406 37.546875 C 39.691406 39.746094 37.921875 41.515625 35.722656 41.515625 Z M 35.722656 41.515625 "/>
<path style=" stroke:none;fill-rule:nonzero;fill:rgb(12.941177%,12.941177%,12.941177%);fill-opacity:1;" d="M 35.722656 32.5625 C 33.421875 32.5625 31.566406 34.417969 31.566406 36.71875 C 31.566406 39.019531 33.421875 40.875 35.722656 40.875 C 38.023438 40.875 39.878906 39.019531 39.878906 36.71875 C 39.878906 34.417969 38.023438 32.5625 35.722656 32.5625 Z M 35.722656 32.9375 C 37.820312 32.9375 39.503906 34.621094 39.503906 36.71875 C 39.503906 38.816406 37.820312 40.5 35.722656 40.5 C 33.625 40.5 31.941406 38.816406 31.941406 36.71875 C 31.941406 34.621094 33.625 32.9375 35.722656 32.9375 Z M 35.722656 32.9375 "/>
</g>
</svg>
